lib/brands/icons/google-duo.svg

<svg xmlns="http://www.w3.org/2000/svg" fill="none" aria-hidden="true" viewBox="0 0 48 48"><g id="google-duo-Icon"><g id="Group"><path id="Vector" fill="#1A73E8" d="M44 25.1364C43.4523 35.6932 34.6909 44 24 44C12.9568 44 4 35.0455 4 24C4 12.9545 12.9568 4 24 4H40.8182C42.5614 4 44 5.43864 44 7.18182V25.1364Z"/><path id="Vector_2" fill="white" d="M40.8182 4H24C12.9545 4 4 12.95 4 23.9886V23.9841C4.06136 12.9977 12.9932 4.22727 24 4.22727H40.8182C42.5636 4.22727 44 5.66591 44 7.40909V7.18182C44 5.43864 42.5636 4 40.8182 4Z" opacity="0.2"/><path id="Vector_3" fill="#1A237E" fill-opacity="0.2" d="M44 25.1363V24.6818C43.4523 35.2409 34.6932 43.7727 24 43.7727C12.9932 43.7727 4.06364 34.7682 4.00227 23.7727C4.00227 23.8113 4 23.9613 4 24C4 35.0477 12.9545 44.0204 24 44C34.8614 43.9795 43.5159 35.6772 44 24.9091"/><path id="Vector_4" fill="#185ABC" d="M32.1818 27.8636C32.1818 29.7909 30.6818 31.0431 28.7727 31.0454H17.4091C15.5023 31.0477 14.0023 29.8045 14 27.8795V28.9999C14.0023 30.9272 15.5023 32.4113 17.4091 32.409H28.7727C30.6795 32.4068 32.1841 30.9272 32.1818 28.9999V27.8636ZM37.6364 28.7727C37.6295 29.334 36.8841 29.6409 36.5 29.2272L32.1818 24.909V26.0454L36.5 30.3636C36.9545 30.7977 37.6364 30.5249 37.6364 29.909V28.7727Z"/><path id="Vector_5" fill="#F1F3F4" d="M36.5003 17.8636L32.1821 22.1818V24.9113L36.5003 29.2272C36.9026 29.6545 37.6367 29.359 37.6367 28.7727V18.3181C37.6367 17.7454 36.9117 17.459 36.5003 17.8636Z"/><path id="Vector_6" fill="white" d="M28.7727 15.8182H17.4091C15.5023 15.8205 13.9977 17.35 14 19.2273V27.8636C14.0023 29.7409 15.5023 31.275 17.4091 31.2727H28.7727C30.6795 31.2705 32.1841 29.7409 32.1818 27.8636V19.2273C32.1795 17.35 30.6795 15.8159 28.7727 15.8182Z"/><path id="Vector_7" fill="#BDC1C6" d="M32.1821 25.1818L32.1844 24.9091L33.0912 25.8181V21.2727L32.1821 22.1818V25.1818Z"/></g></g></svg>

<svg xmlns="http://www.w3.org/2000/svg" fill="none" aria-hidden="true" viewBox="0 0 48 48"><path fill="#1A73E8" d="M44 25.136C43.452 35.693 34.69 44 24 44 12.957 44 4 35.045 4 24 4 12.954 12.957 4 24 4h16.818A3.2 3.2 0 0 1 44 7.182v17.954Z"/><path fill="#fff" d="M40.818 4H24C12.954 4 4 12.95 4 23.989v-.005c.061-10.986 8.993-19.757 20-19.757h16.818A3.199 3.199 0 0 1 44 7.41v-.227A3.199 3.199 0 0 0 40.818 4Z" opacity=".2"/><path fill="#1A237E" fill-opacity=".2" d="M44 25.136v-.454c-.548 10.559-9.307 19.09-20 19.09-11.007 0-19.936-9.004-19.998-20L4 24c0 11.048 8.954 20.02 20 20 10.861-.02 19.516-8.323 20-19.09"/><path fill="#185ABC" d="M32.182 27.864c0 1.927-1.5 3.18-3.41 3.181H17.41c-1.907.003-3.407-1.24-3.409-3.166V29c.002 1.928 1.502 3.412 3.41 3.41h11.363c1.907-.002 3.411-1.482 3.409-3.41v-1.135Zm5.454.909c-.007.561-.752.868-1.136.454l-4.318-4.318v1.136l4.318 4.319c.455.434 1.136.16 1.136-.455v-1.136Z"/><path fill="#F1F3F4" d="m36.5 17.864-4.318 4.318v2.73l4.318 4.315c.403.427 1.137.132 1.137-.454V18.318c0-.573-.725-.859-1.137-.454Z"/><path fill="#fff" d="M28.773 15.818H17.409A3.397 3.397 0 0 0 14 19.228v8.636a3.397 3.397 0 0 0 3.41 3.409h11.363a3.397 3.397 0 0 0 3.409-3.41v-8.636a3.397 3.397 0 0 0-3.41-3.409Z"/><path fill="#BDC1C6" d="m32.182 25.182.002-.273.907.91v-4.546l-.909.909v3Z"/></svg>
